src/topics/icons/codio.svg

<svg height="296" preserveAspectRatio="xMidYMid" viewBox="0 0 256 296" width="256" xmlns="http://www.w3.org/2000/svg"><path d="m125.305643 214.373041.934169 77.731189 1.679937 3.459406 127.678997-73.75047-72.305956-41.810658-55.373041 31.939812z" fill="#a3baf0"/><path d="m.24075235 221.813166 127.67899665 73.75047v-83.541065l-55.2927898-31.939812v-63.879624l-.0000024-3.120064-67.6724115-38.6905945h-4.71379295z" fill="#4474e1"/><path d="m2.96584007 75.9665017c10.31530013 5.9581722 47.39315403 27.3745383 67.37852293 38.9181933.7608654.43948 2.2825962 1.31844 2.2825962 1.31844l55.2927898-31.9398121 55.373041 31.9398121 72.305956-41.8106585-127.678997-73.75047023-127.67899665 73.75047023s.97923473.5656112 2.72508772 1.5740252z" fill="#c7d6f7"/></svg>

<?xml version="1.0" encoding="UTF-8" standalone="no"?>
<svg width="256px" height="296px" viewBox="0 0 256 296" version="1.1" xmlns="http://www.w3.org/2000/svg" xmlns:xlink="http://www.w3.org/1999/xlink" preserveAspectRatio="xMidYMid">
	<g>
		<path d="M125.305643,214.373041 L126.239812,292.10423 L127.919749,295.563636 L255.598746,221.813166 L183.29279,180.002508 L127.919749,211.94232 L125.305643,214.373041 Z" fill="#A3BAF0"></path>
		<path d="M0.240752351,221.813166 L127.919749,295.563636 L127.919749,212.022571 L72.6269592,180.082759 L72.6269592,116.203135 L72.6269568,113.083071 L4.9545453,74.3924765 L0.240752351,74.3924765 L0.240752351,221.813166 Z" fill="#4474E1"></path>
		<path d="M2.96584007,75.9665017 C13.2811402,81.9246739 50.3589941,103.34104 70.344363,114.884695 C71.1052284,115.324175 72.6269592,116.203135 72.6269592,116.203135 L127.919749,84.2633229 L183.29279,116.203135 L255.598746,74.3924765 L127.919749,0.64200627 L0.240752351,74.3924765 C0.240752351,74.3924765 1.21998708,74.9580877 2.96584007,75.9665017 Z" fill="#C7D6F7"></path>
	</g>
</svg>
